X: 917
T: Gücendim Ben Sana
C: Muhlis Sabahaddin Ezgi
O: Turkey
F: http://compmusic.upf.edu/node/140
N: mahur--sarki--curcuna--gucendim_ben--muhlis_sabahaddin_ezgi
N: makam= mahur
N: form= sarki
N: usul= curcuna = 10/8
M: 10/8
L: 1/16
K: C ^9/8f   
Q: 1/4=180
%%MIDI tuningsystem comma53
d4 d2g4d4g6  | c4 c2e4c4e6  | d4 d2e2 f2a2 g2=f2 e2d2  | \
w:  ARANAĞME  |   |   | 
d4 =f2e2 d2d2 c2B2 A2G2  | 
w:   | 
d4 d2g4d4g6  | c4 c2e4c4e6  | d4 g2=f2 e2d2 c2B2 A2G2  | \
w:   |   |   | 
A4 c2B2 A2G2 F2G3def  | 
w:   | 
g4 d2g4g8f2  | e6f4g2 f2g6  | z4 g2a4a4a4g2  | \
w:  *  Gü cen dim   |  ben  sa na   |  u nut tun  ar  | 
f2e2 f2g4a2 g2f2 e2d2  | 
w:  tık  *  be ni    | 
g4 d2g4g8f2  | e6f4g2 f2g6  | z4 g2a4a4a4g2  | \
w:  *  Gü cen dim   |  ben  sa na   |  u nut tun  ar  | 
f2e2 f2g4a2 g2f2 e2d2  | 
w:  tık  *  be ni    | 
z4 d2g4g2 f2g4c2  | c6e4e4e6  | B6d4d4d2 e2f2  | \
w:  Tam_ üç  yıl   |  Mec nûn  gi bi   |  sev miş tim  ah   | 
a2g2 =f2e2 d2d2 c2B6  | 
w:  ben  *  *  *  *  se *  ni    | 
z4 B2c4c8B2  | d6d4d2 ^c2_7/8B2 A2G2  | \
w:  Tam_ üç  yıl   |  Mec nûn  gi *  bi   | 
^c2d2 e2=f4f2 e2d2 c2_7/8B2  | 
w:  sev *  miş *  tim  *  ah   | 
A2_7/8B2 ^c2B2 A2G2 F2G6  | D4 G2G4D4G6  | \
w:  ben  *  *  *  *  se *  ni    |  SAZ  | 
D4 G2G4D4G6  | z4 d2g4g2 f2g4c2  | 
w:   |  Tam_ üç  yıl   | 
c6e4e4e6  | B6d4d4d2 e2f2  | a2g2 =f2e2 d2d2 c2B6  | \
w:  Mec nûn  gi bi   |  sev miş tim  ah   |  ben  *  *  *  *  se *  ni    | 
z4 B2c4c8B2  | 
w:  Tam_ üç  yıl   | 
d6d4d2 ^c2_7/8B2 A2G2  | ^c2d2 e2=f4f2 e2d2 c2_7/8B2  | \
w:  Mec nûn  gi *  bi   |  sev *  miş *  tim  *  ah   | 
A2_7/8B2 ^c2B2 A2G2 F2G6  | 
w:  ben  *  *  *  *  se *  ni    | 
D4 G2G4D4G6  | D4 G2G4D4G6  | z4 ^c2d4d4d2 c2_7/8B2  | \
w:  SAZ  |   |  Be ni  in cit  | 
^c2d2 e2=f2 e2d2 c2d6  | 
w:  tin  *  *  sen  *  bil *  lah   | 
z4 d2g4g4{g}=f2 e2d2  | d2e2 =f2e2 d2d2 c2B6  | \
w:  se ni  de  *  yak  |  sın  *  *  *  *  Al *  lah    | 
z4 B2c4c4c4B2  | 
w:  Be ni  in cit  | 
d6d4d2 ^c2_7/8B2 A2G2  | ^c2d2 e2=f2 e2d2 c2{c}_7/8B2 A2G2  | \
w:  tin  sen  bil *  lah   |  se *  *  ni  *  de  *  *  yak  | 
A2_7/8B2 ^c2B2 A2G2 F2G6  | 
w:  sın  *  *  *  *  Al *  lah    | 
D4 G2G4D4G6  | D4 G2G4D4G6  | z4 d2g4g2 f2g4c2  | \
w:  SAZ  |   |  Tam_ üç  yıl   | 
c6e4e4e6  | 
w:  Mec nûn  gi bi   | 
B6d4d4d2 e2f2  | a2g2 =f2e2 d2d2 c2B6  | \
w:  sev miş tim  ah   |  ben  *  *  *  *  se *  ni    | 
z4 B2c4c8B2  | d6d4d2 ^c2_7/8B2 A2G2  | 
w:  Tam_ üç  yıl   |  Mec nûn  gi *  bi   | 
^c2d2 e2=f4f2 e2d2 c2_7/8B2  | A2_7/8B2 ^c2B2 A2G2 F2G6  | |


